dist/img/svg/icon-shield.svg

<svg width="50" height="50" viewBox="0 0 50 50" fill="none" xmlns="http://www.w3.org/2000/svg">
<path d="M47.9215 12.2505C47.8791 11.8304 47.7288 11.4277 47.4846 11.0802C47.2403 10.7326 46.9102 10.4515 46.525 10.2632L26.1391 0.264263C25.785 0.0904793 25.3946 0 24.9987 0C24.6028 0 24.2124 0.0904793 23.8584 0.264263L3.47243 10.2632C3.08834 10.4526 2.75921 10.734 2.51554 11.0814C2.27188 11.4288 2.12156 11.8309 2.07854 12.2505C2.05051 12.518 -0.370323 39.1652 23.9654 49.7816C24.2906 49.9256 24.6433 50 25 50C25.3568 50 25.7094 49.9256 26.0346 49.7816C50.3703 39.1652 47.9495 12.5205 47.9215 12.2505Z" fill="#4633B9"/>
<path d="M47.9215 12.2505C47.8791 11.8304 47.7288 11.4277 47.4846 11.0802C47.2403 10.7326 46.9102 10.4515 46.525 10.2632L26.1391 0.264263C25.785 0.0904793 25.3946 0 24.9987 0C24.6028 0 24.2124 0.0904793 23.8584 0.264263L3.47243 10.2632C3.08834 10.4526 2.75921 10.734 2.51554 11.0814C2.27188 11.4288 2.12156 11.8309 2.07854 12.2505C2.05051 12.518 -0.370323 39.1652 23.9654 49.7816C24.2906 49.9256 24.6433 50 25 50C25.3568 50 25.7094 49.9256 26.0346 49.7816C50.3703 39.1652 47.9495 12.5205 47.9215 12.2505Z" fill="#1767F9"/>
<path d="M47.9215 12.2505C47.8791 11.8304 47.7288 11.4277 47.4846 11.0802C47.2403 10.7326 46.9102 10.4515 46.525 10.2632L26.1391 0.264263C25.785 0.0904793 25.3946 0 24.9987 0C24.6028 0 24.2124 0.0904793 23.8584 0.264263L3.47243 10.2632C3.08834 10.4526 2.75921 10.734 2.51554 11.0814C2.27188 11.4288 2.12156 11.8309 2.07854 12.2505C2.05051 12.518 -0.370323 39.1652 23.9654 49.7816C24.2906 49.9256 24.6433 50 25 50C25.3568 50 25.7094 49.9256 26.0346 49.7816C50.3703 39.1652 47.9495 12.5205 47.9215 12.2505Z" fill="#4BB1BC"/>
<path d="M47.9215 12.2505C47.8791 11.8304 47.7288 11.4277 47.4846 11.0802C47.2403 10.7326 46.9102 10.4515 46.525 10.2632L26.1391 0.264263C25.785 0.0904793 25.3946 0 24.9987 0C24.6028 0 24.2124 0.0904793 23.8584 0.264263L3.47243 10.2632C3.08834 10.4526 2.75921 10.734 2.51554 11.0814C2.27188 11.4288 2.12156 11.8309 2.07854 12.2505C2.05051 12.518 -0.370323 39.1652 23.9654 49.7816C24.2906 49.9256 24.6433 50 25 50C25.3568 50 25.7094 49.9256 26.0346 49.7816C50.3703 39.1652 47.9495 12.5205 47.9215 12.2505Z" fill="url(#paint0_radial_2_7412)"/>
<path d="M47.9215 12.2505C47.8791 11.8304 47.7288 11.4277 47.4846 11.0802C47.2403 10.7326 46.9102 10.4515 46.525 10.2632L26.1391 0.264263C25.785 0.0904793 25.3946 0 24.9987 0C24.6028 0 24.2124 0.0904793 23.8584 0.264263L3.47243 10.2632C3.08834 10.4526 2.75921 10.734 2.51554 11.0814C2.27188 11.4288 2.12156 11.8309 2.07854 12.2505C2.05051 12.518 -0.370323 39.1652 23.9654 49.7816C24.2906 49.9256 24.6433 50 25 50C25.3568 50 25.7094 49.9256 26.0346 49.7816C50.3703 39.1652 47.9495 12.5205 47.9215 12.2505Z" fill="url(#paint1_radial_2_7412)" fill-opacity="0.5"/>
<path d="M47.9215 12.2505C47.8791 11.8304 47.7288 11.4277 47.4846 11.0802C47.2403 10.7326 46.9102 10.4515 46.525 10.2632L26.1391 0.264263C25.785 0.0904793 25.3946 0 24.9987 0C24.6028 0 24.2124 0.0904793 23.8584 0.264263L3.47243 10.2632C3.08834 10.4526 2.75921 10.734 2.51554 11.0814C2.27188 11.4288 2.12156 11.8309 2.07854 12.2505C2.05051 12.518 -0.370323 39.1652 23.9654 49.7816C24.2906 49.9256 24.6433 50 25 50C25.3568 50 25.7094 49.9256 26.0346 49.7816C50.3703 39.1652 47.9495 12.5205 47.9215 12.2505Z" fill="url(#paint2_linear_2_7412)"/>
<path d="M43.4412 14.6882L43.4408 14.6838C43.4301 14.5764 43.3922 14.473 43.3299 14.3831L44.563 13.5289L43.3299 14.3831C43.2677 14.2932 43.1829 14.2197 43.0831 14.1702L43.0813 14.1693L25.7976 5.57023L25.7971 5.57002C25.7049 5.52409 25.6028 5.5 25.4989 5.5C25.3951 5.5 25.2929 5.52409 25.2007 5.57002L25.2003 5.57023L7.9193 14.168C7.91902 14.1681 7.91873 14.1682 7.91844 14.1684C7.81833 14.2186 7.73338 14.2927 7.67086 14.3831C7.60819 14.4738 7.56993 14.5781 7.55898 14.6863L7.55865 14.6896M43.4412 14.6882L7.55865 14.6896L7.55865 14.6896M43.4412 14.6882L43.4413 14.6897C43.446 14.7435 43.5667 16.1266 43.4477 18.3111C43.3258 20.5476 42.954 23.5975 41.9642 26.9073C39.9903 33.5083 35.5816 41.0988 25.7701 45.4405L25.7627 45.4438C25.6804 45.4808 25.5908 45.5 25.5 45.5C25.4092 45.5 25.3196 45.4808 25.2373 45.4438L25.2298 45.4405M43.4412 14.6882L25.2298 45.4405M7.55865 14.6896C7.55869 14.6892 7.55863 14.6899 7.55849 14.6915M7.55865 14.6896L7.55849 14.6915M25.2298 45.4405C15.4185 41.0988 11.0097 33.5079 9.03576 26.9066M25.2298 45.4405L9.03576 26.9066M9.03576 26.9066C8.046 23.5965 7.6742 20.5466 7.55231 18.3102M9.03576 26.9066L7.55231 18.3102M7.55231 18.3102C7.43361 16.1321 7.5533 14.7514 7.55849 14.6915M7.55231 18.3102L7.55849 14.6915" stroke="#FFC530" stroke-width="3"/>
<path d="M41.4458 14.9476L41.4462 14.952C41.4462 14.9515 41.4462 14.9522 41.4464 14.9539C41.4513 15.0118 41.5609 16.2909 41.4518 18.3076C41.3396 20.3827 40.9973 23.2121 40.0863 26.2822C38.2695 32.4051 34.2154 39.4344 25.1987 43.4553L25.1912 43.4587C25.131 43.486 25.0658 43.5 25 43.5C24.9342 43.5 24.869 43.486 24.8088 43.4587L24.8012 43.4553C15.7846 39.4344 11.7305 32.4046 9.91369 26.2815C8.08929 20.1329 8.55183 14.9736 8.55364 14.9534L8.55365 14.9534L8.55398 14.9501C8.56252 14.865 8.59233 14.7837 8.64031 14.7138C8.68808 14.6442 8.75222 14.5882 8.82652 14.5505C8.82683 14.5504 8.82713 14.5502 8.82743 14.5501L24.7789 6.55231L24.7793 6.55209C24.8477 6.51777 24.9229 6.5 24.999 6.5C25.0751 6.5 25.1503 6.51777 25.2187 6.55209L25.2191 6.55231L41.1734 14.5515L41.1751 14.5524C41.2491 14.5893 41.313 14.6448 41.3605 14.7138L42.5966 13.8641L41.3605 14.7139C41.408 14.783 41.4375 14.8634 41.4458 14.9476ZM25.8097 44.8253C44.855 36.3322 42.9605 15.0164 42.9385 14.8004H7.06147C7.03953 15.0144 5.14496 36.3322 24.1903 44.8253C24.4448 44.9404 24.7208 45 25 45C25.2792 45 25.5552 44.9404 25.8097 44.8253Z" stroke="black" stroke-width="3"/>
<path d="M17 22.6587L22.9188 28L34 18" stroke="black" stroke-width="3"/>
<defs>
<radialGradient id="paint0_radial_2_7412" cx="0" cy="0" r="1" gradientUnits="userSpaceOnUse" gradientTransform="translate(29.6 36.9048) rotate(115.097) scale(28.9208 32.4264)">
<stop stop-color="#FF8A1E"/>
<stop offset="1" stop-color="#EF4141"/>
</radialGradient>
<radialGradient id="paint1_radial_2_7412" cx="0" cy="0" r="1" gradientUnits="userSpaceOnUse" gradientTransform="translate(24.5132 25.5952) rotate(-154.758) scale(55.8338 69.7166)">
<stop stop-color="#FFA901"/>
<stop offset="1" stop-color="#FFC701" stop-opacity="0"/>
</radialGradient>
<linearGradient id="paint2_linear_2_7412" x1="40.2595" y1="2.32674e-06" x2="-0.435451" y2="70.338" gradientUnits="userSpaceOnUse">
<stop stop-color="#FFDF35"/>
<stop offset="1" stop-color="#FF8A01" stop-opacity="0"/>
</linearGradient>
</defs>
</svg>

<svg width="50" height="50" fill="none" xmlns="http://www.w3.org/2000/svg"><path d="M47.922 12.25a2.466 2.466 0 00-.437-1.17 2.53 2.53 0 00-.96-.817L26.139.264a2.59 2.59 0 00-2.28 0l-20.387 10a2.54 2.54 0 00-.956.817c-.244.348-.394.75-.437 1.17-.028.267-2.45 26.914 21.886 37.53a2.556 2.556 0 002.07 0c24.335-10.616 21.915-37.26 21.887-37.53z" fill="#4633B9"/><path d="M47.922 12.25a2.466 2.466 0 00-.437-1.17 2.53 2.53 0 00-.96-.817L26.139.264a2.59 2.59 0 00-2.28 0l-20.387 10a2.54 2.54 0 00-.956.817c-.244.348-.394.75-.437 1.17-.028.267-2.45 26.914 21.886 37.53a2.556 2.556 0 002.07 0c24.335-10.616 21.915-37.26 21.887-37.53z" fill="#1767F9"/><path d="M47.922 12.25a2.466 2.466 0 00-.437-1.17 2.53 2.53 0 00-.96-.817L26.139.264a2.59 2.59 0 00-2.28 0l-20.387 10a2.54 2.54 0 00-.956.817c-.244.348-.394.75-.437 1.17-.028.267-2.45 26.914 21.886 37.53a2.556 2.556 0 002.07 0c24.335-10.616 21.915-37.26 21.887-37.53z" fill="#4BB1BC"/><path d="M47.922 12.25a2.466 2.466 0 00-.437-1.17 2.53 2.53 0 00-.96-.817L26.139.264a2.59 2.59 0 00-2.28 0l-20.387 10a2.54 2.54 0 00-.956.817c-.244.348-.394.75-.437 1.17-.028.267-2.45 26.914 21.886 37.53a2.556 2.556 0 002.07 0c24.335-10.616 21.915-37.26 21.887-37.53z" fill="url(#paint0_radial_2_7412)"/><path d="M47.922 12.25a2.466 2.466 0 00-.437-1.17 2.53 2.53 0 00-.96-.817L26.139.264a2.59 2.59 0 00-2.28 0l-20.387 10a2.54 2.54 0 00-.956.817c-.244.348-.394.75-.437 1.17-.028.267-2.45 26.914 21.886 37.53a2.556 2.556 0 002.07 0c24.335-10.616 21.915-37.26 21.887-37.53z" fill="url(#paint1_radial_2_7412)" fill-opacity=".5"/><path d="M47.922 12.25a2.466 2.466 0 00-.437-1.17 2.53 2.53 0 00-.96-.817L26.139.264a2.59 2.59 0 00-2.28 0l-20.387 10a2.54 2.54 0 00-.956.817c-.244.348-.394.75-.437 1.17-.028.267-2.45 26.914 21.886 37.53a2.556 2.556 0 002.07 0c24.335-10.616 21.915-37.26 21.887-37.53z" fill="url(#paint2_linear_2_7412)"/><path d="M43.441 14.688v-.004a.639.639 0 00-.111-.3l1.233-.855-1.233.854a.652.652 0 00-.247-.213h-.002l-17.283-8.6h0a.669.669 0 00-.597 0h0L7.918 14.168s0 0 0 0a.661.661 0 00-.36.518v.004m35.882-.002l-35.88.002h0m35.882-.002v.002c.005.053.126 1.437.007 3.621a37.429 37.429 0 01-1.484 8.596C39.99 33.508 35.582 41.1 25.77 45.441l-.007.003a.64.64 0 01-.526 0l-.007-.004m18.21-30.751L25.23 45.44M7.559 14.69v.002m0-.002v.002m17.67 30.748C15.42 41.1 11.01 33.508 9.037 26.907M25.23 45.44L9.036 26.907m0 0a37.435 37.435 0 01-1.484-8.597m1.484 8.597L7.552 18.31m0 0c-.118-2.178.001-3.559.006-3.618m-.006 3.618l.006-3.618" stroke="#FFC530" stroke-width="3"/><path d="M41.446 14.948v.006c.005.058.115 1.337.006 3.354a34.968 34.968 0 01-1.366 7.974c-1.816 6.123-5.87 13.152-14.887 17.173l-.008.004a.463.463 0 01-.382 0l-.008-.004c-9.016-4.02-13.07-11.05-14.887-17.173-1.825-6.15-1.362-11.308-1.36-11.329h0v-.003a.507.507 0 01.273-.4s0 0 0 0L24.78 6.552h0a.49.49 0 01.44 0h0l15.954 8h.002a.492.492 0 01.186.162l1.236-.85-1.236.85a.5.5 0 01.085.234zM25.81 44.825C44.855 36.332 42.96 15.016 42.938 14.8H7.061c-.021.214-1.916 21.532 17.13 30.025a1.965 1.965 0 001.619 0z" stroke="#000" stroke-width="3"/><path d="M17 22.659L22.919 28 34 18" stroke="#000" stroke-width="3"/><defs><radialGradient id="paint0_radial_2_7412" cx="0" cy="0" r="1" gradientUnits="userSpaceOnUse" gradientTransform="matrix(-12.26682 26.19042 -29.36506 -13.75372 29.6 36.905)"><stop stop-color="#FF8A1E"/><stop offset="1" stop-color="#EF4141"/></radialGradient><radialGradient id="paint1_radial_2_7412" cx="0" cy="0" r="1" gradientUnits="userSpaceOnUse" gradientTransform="matrix(-50.5025 -23.8099 29.73012 -63.05969 24.513 25.595)"><stop stop-color="#FFA901"/><stop offset="1" stop-color="#FFC701" stop-opacity="0"/></radialGradient><linearGradient id="paint2_linear_2_7412" x1="40.26" y1="0" x2="-.435" y2="70.338" gradientUnits="userSpaceOnUse"><stop stop-color="#FFDF35"/><stop offset="1" stop-color="#FF8A01" stop-opacity="0"/></linearGradient></defs></svg>
